svgs/thin/tree-palm.svg

<svg xmlns="http://www.w3.org/2000/svg" viewBox="0 0 576 512"><!--! Font Awesome Pro 6.3.0 by @fontawesome - https://fontawesome.com License - https://fontawesome.com/license (Commercial License) Copyright 2023 Fonticons, Inc. --><path d="M416 64c-36.25 0-71.24 9.141-99.74 25.91C298.2 37.19 234.6 0 159.1 0C79.63 0 12.52 42.75 .4086 101.7C-.8259 107.6 .768 113.9 4.768 118.8C9.472 124.5 17.1 128 25.18 128l38.82-.0001c2.5 0 4.835-1.172 6.351-3.156l25.64-33.64l25.64 33.64C123.2 126.8 125.5 128 127.1 128h31.38C145.8 136.4 133 146.6 121.5 158.1c-56.83 56.81-74.07 134.5-40.97 184.7c9.221 14.05 27.4 9.879 36.16 1.125l132.7-132.7c6.792 112.1-18.81 228.1-24.28 252.3c-2.891 12.19-.1719 24.73 7.485 34.42C239.7 506.9 250.1 512 261.1 512h50.11c18.7 0 34.52-14.34 36.8-33.36C361.8 365.1 336.4 241.7 324.3 192h107.7c2.5 0 4.844-1.172 6.36-3.156l25.64-33.64l25.64 33.64C491.2 190.8 493.5 192 496 192h54.82c17.54 0 27.28-14.21 24.77-26.34C563.5 106.8 496.4 64 416 64zM332.1 476.7C330.8 487.7 321.8 496 311.2 496H261.1c-17.06 0-22.95-17.98-20.39-28.81c5.793-24.7 33.74-152.4 23.66-270.9L268.6 192h39.95C308.5 201.4 348.6 340.1 332.1 476.7zM550.8 176H499.1l-29.61-38.84c-3.031-3.969-9.688-3.969-12.72 0L428.1 176H265.3c-2.125 0-4.157 .8438-5.657 2.344l-154.3 154.3c-5.288 5.322-10.3 3.201-11.47 1.391C65.4 290.9 82.13 220.1 132.8 169.5c18.38-18.38 40.1-32.91 62.83-42.03c3.547-1.422 5.594-5.172 4.875-8.938C199.8 114.7 196.5 112 192.6 112H131.1L102.4 73.16c-3.031-3.969-9.688-3.969-12.72 0L60.02 112H25.18c-4.897 0-9.907-3.234-9.11-7.125C26.5 54.2 88.37 16 159.1 16c70.99 0 132.8 37.88 143.7 88.11c1.195 5.514 7.581 8.105 12.33 4.906C343.4 90.3 378.9 80 416 80c71.63 0 133.5 38.2 143.9 88.88C560.8 172.1 555.5 176 550.8 176z"/></svg>

<svg xmlns="http://www.w3.org/2000/svg" viewBox="0 0 576 512"><!-- Font Awesome Pro 6.0.0-alpha2 by @fontawesome - https://fontawesome.com License - https://fontawesome.com/license (Commercial License) --><path d="M416.019 64C379.766 64 344.779 73.141 316.277 89.906C298.15 37.188 234.63 0 159.999 0C79.633 0 12.519 42.75 0.409 101.656C-0.826 107.625 0.768 113.859 4.768 118.766C9.472 124.547 17.097 128 25.176 128H63.992C66.492 128 68.836 126.828 70.352 124.844L95.994 91.203L121.637 124.844C123.152 126.828 125.496 128 127.997 128H159.374C145.826 136.438 133.028 146.594 121.48 158.141C64.648 214.953 47.412 292.641 80.509 342.844C89.73 356.891 107.913 352.723 116.668 343.969L249.406 211.24C256.198 323.336 230.594 440.191 225.129 463.516C222.238 475.703 224.957 488.25 232.614 497.938C239.677 506.875 250.053 512 261.085 512H311.198C329.903 512 345.717 497.656 347.998 478.641C361.753 365.139 336.364 241.658 324.283 192H432.02C434.52 192 436.864 190.828 438.38 188.844L464.023 155.203L489.665 188.844C491.181 190.828 493.525 192 496.025 192H550.842C568.382 192 578.119 177.791 575.609 165.656C563.499 106.75 496.384 64 416.019 64ZM332.122 476.719C330.793 487.703 321.808 496 311.198 496H261.085C244.023 496 238.14 478.016 240.693 467.188C246.486 442.49 274.428 314.797 264.349 196.299L268.648 192H308.596C308.485 201.445 348.557 340.979 332.122 476.719ZM550.842 176H499.994L470.382 137.156C467.351 133.188 460.694 133.188 457.663 137.156L428.051 176H265.335C263.21 176 261.179 176.844 259.679 178.344L105.354 332.656C100.067 337.979 95.057 335.857 93.885 334.047C65.398 290.859 82.134 220.094 132.794 169.453C151.17 151.078 172.891 136.547 195.627 127.422C199.174 126 201.221 122.25 200.502 118.484C199.768 114.719 196.471 112 192.642 112H131.966L102.354 73.156C99.322 69.188 92.666 69.188 89.634 73.156L60.023 112H25.176C20.279 112 15.269 108.766 16.066 104.875C26.504 54.203 88.369 16 159.999 16C230.989 16 292.759 53.875 303.666 104.109C304.862 109.623 311.247 112.215 315.995 109.016C343.373 90.297 378.907 80 416.019 80C487.649 80 549.513 118.203 559.952 168.875C560.792 172.975 555.485 176 550.842 176Z"/></svg>
